src/assets/icons/flight-itinerary.svg

<svg width="24" height="24" viewBox="0 0 24 24" fill="none" xmlns="http://www.w3.org/2000/svg">
<rect width="24" height="24" rx="12" fill="#C3E1FF"/>
<rect x="2.3999" y="2.3999" width="19.2" height="19.2" rx="9.6" fill="white" stroke="#379AFF"/>
<path d="M14.4888 18.1094L15.3939 17.2043L14.0363 11.3212L16.5253 8.83215C16.9009 8.45653 16.9009 7.85012 16.5253 7.4745C16.1497 7.09889 15.5433 7.09889 15.1676 7.4745L12.6786 9.96352L6.79549 8.60587L5.8904 9.51097L10.6422 12L8.15314 14.489L6.56922 14.2627L5.8904 14.9415L7.92687 16.0729L9.05824 18.1094L9.73706 17.4306L9.51078 15.8466L11.9998 13.3576L14.4888 18.1094Z" fill="#0E286A"/>
</svg>

<svg xmlns="http://www.w3.org/2000/svg" width="24" height="24" fill="none" viewBox="0 0 24 24">
  <rect width="24" height="24" fill="#C3E1FF" rx="12"/>
  <rect width="19.2" height="19.2" x="2.4" y="2.4" fill="#fff" stroke="#379AFF" rx="9.6"/>
  <path fill="#0E286A" d="m14.489 18.11.905-.906-1.358-5.883 2.49-2.489a.959.959 0 1 0-1.358-1.358l-2.49 2.49-5.883-1.358-.905.905L10.642 12l-2.489 2.489-1.584-.226-.679.678 2.037 1.132 1.131 2.036.68-.678-.227-1.584L12 13.357l2.489 4.752Z"/>
</svg>
